neru-light-classic/22x22/actions/folder-new-symbolic.svg

<?xml version="1.0" encoding="UTF-8" standalone="no"?>
<svg
   xmlns:dc="http://purl.org/dc/elements/1.1/"
   xmlns:cc="http://creativecommons.org/ns#"
   xmlns:rdf="http://www.w3.org/1999/02/22-rdf-syntax-ns#"
   xmlns:svg="http://www.w3.org/2000/svg"
   xmlns="http://www.w3.org/2000/svg"
   xmlns:sodipodi="http://sodipodi.sourceforge.net/DTD/sodipodi-0.dtd"
   xmlns:inkscape="http://www.inkscape.org/namespaces/inkscape"
   width="22"
   height="22"
   viewBox="0 0 22 22"
   version="1.1"
   id="svg7"
   sodipodi:docname="folder-new-symbolic.svg"
   inkscape:version="0.92.1 r">
  <metadata
     id="metadata11">
    <rdf:RDF>
      <cc:Work
         rdf:about="">
        <dc:format>image/svg+xml</dc:format>
        <dc:type
           rdf:resource="http://purl.org/dc/dcmitype/StillImage" />
        <dc:title></dc:title>
      </cc:Work>
    </rdf:RDF>
  </metadata>
  <sodipodi:namedview
     pagecolor="#ffffff"
     bordercolor="#666666"
     borderopacity="1"
     objecttolerance="10"
     gridtolerance="10"
     guidetolerance="10"
     inkscape:pageopacity="0"
     inkscape:pageshadow="2"
     inkscape:window-width="769"
     inkscape:window-height="480"
     id="namedview9"
     showgrid="false"
     inkscape:zoom="10.727273"
     inkscape:cx="11"
     inkscape:cy="11"
     inkscape:window-x="0"
     inkscape:window-y="0"
     inkscape:window-maximized="0"
     inkscape:current-layer="svg7" />
  <defs
     id="defs3">
    <style
       type="text/css"
       id="current-color-scheme">
   .ColorScheme-Text { color:#1e333d; } .ColorScheme-Highlight { color:#3fb7ff; }
  </style>
  </defs>
  <path
     style="fill:currentColor;opacity:1"
     class="ColorScheme-Text"
     transform="translate(3 3)"
     d="M 1.8398438 1.0097656 C 1.5585938 1.0566456 0.99609375 1.2597656 0.99609375 2.0097656 L 0.99609375 13.009766 C 0.99609375 13.009766 0.99609375 14.009766 1.9960938 14.009766 L 13.996094 14.009766 C 13.996094 14.009766 14.996094 14.009766 14.996094 13.009766 L 14.996094 4.0097656 C 14.996094 3.0097656 13.996094 3.0097656 13.996094 3.0097656 L 8.9960938 3.0097656 L 6.9960938 1.0097656 L 1.9960938 1.0097656 C 1.9960938 1.0097656 1.9335938 0.99416562 1.8398438 1.0097656 z M 6.9960938 5.0097656 L 8.9960938 5.0097656 L 8.9960938 7.0097656 L 10.996094 7.0097656 L 10.996094 9.0097656 L 8.9960938 9.0097656 L 8.9960938 11.009766 L 6.9960938 11.009766 L 6.9960938 9.0097656 L 4.9960938 9.0097656 L 4.9960938 7.0097656 L 6.9960938 7.0097656 L 6.9960938 5.0097656 z"
     id="path5" />
</svg>

<svg xmlns="http://www.w3.org/2000/svg" width="22" height="22" version="1.1" id="svg7"><defs id="defs3"><style type="text/css" id="current-color-scheme"></style></defs><path transform="translate(3 3)" d="M1.84 1.01c-.281.047-.844.25-.844 1v11s0 1 1 1h12s1 0 1-1v-9c0-1-1-1-1-1h-5l-2-2h-5s-.062-.016-.156 0zm5.156 4h2v2h2v2h-2v2h-2v-2h-2v-2h2v-2z" id="path5" fill="currentColor" opacity="1" color="#1e333d"/></svg>
